X: 3331
T:Gan Ainm
R:Jig
S:Gerry O'Connor, Louth (fiddle)
D:Session tape - Portaferry, Down 1993
Z:Bernie Stocks
M:6/8
L:1/8
K:G
AGF G2A|BAG ABc|dgf d3|ded cAd|!
AGF G2A|BAG ABc|dgf d2B|cAF G3:|!
K:D\
:A3 d2e|f2d gfe|dgf e2c|ABA AFG|!
A3 d2e|f2d gfe|aba fec|edc d3:|!
K:G\
:B3 GBd|gfg ege|ded ~c3|~B3 AFD|!
ded GBd|gfa gfa|gdB cAF|AGF G3:|!
